X:1
T: Miss Margaret Gordon (of Lessmore's) Strathspey
C:R. Mackintosh
R:Strathspey
Q: 128
K:Gm
M:4/4
L:1/16
|:d2|BG3 G3A F3A cA3|BG3 G3A G3c dg3|BG3 G3A F3A cd3|BG3 A3^F G4 G2d2|
BG3 G3A F3A cA3|BG3 G3A G3c dg3|BG3 G3A F3A cd3|BG3 A3^F G4 G2d2|
gd3 d3f AF3 cA3|gd3 d3=e fg3 ag3|fd3 d3f F3A cd3|B2G2 A2^F2 G4 G2^f2|
gd3 d3f AF3 cA3|gd3 d3=e f3a ga3|f3g dg3 cf3 Ac3|d3B dcBA G4 G2:|
